dist/img/svg/ic_gps.svg

<svg width="24" height="24" viewBox="0 0 24 24" fill="none" xmlns="http://www.w3.org/2000/svg">
<path d="M11.2508 22.2007V20.4699C9.16742 20.2558 7.41357 19.4366 5.98921 18.0123C4.56486 16.5879 3.74563 14.834 3.53153 12.7507H1.80078V11.2508H3.53153C3.74563 9.16742 4.56486 7.41357 5.98921 5.98921C7.41357 4.56486 9.16742 3.74563 11.2508 3.53153V1.80078H12.7507V3.53153C14.834 3.74563 16.5879 4.56486 18.0123 5.98921C19.4366 7.41357 20.2558 9.16742 20.4699 11.2508H22.2007V12.7507H20.4699C20.2558 14.834 19.4366 16.5879 18.0123 18.0123C16.5879 19.4366 14.834 20.2558 12.7507 20.4699V22.2007H11.2508ZM12.0007 19.0007C13.9341 19.0007 15.5841 18.3174 16.9507 16.9507C18.3174 15.5841 19.0007 13.9341 19.0007 12.0007C19.0007 10.0674 18.3174 8.4174 16.9507 7.05073C15.5841 5.68406 13.9341 5.00073 12.0007 5.00073C10.0674 5.00073 8.4174 5.68406 7.05073 7.05073C5.68406 8.4174 5.00073 10.0674 5.00073 12.0007C5.00073 13.9341 5.68406 15.5841 7.05073 16.9507C8.4174 18.3174 10.0674 19.0007 12.0007 19.0007ZM12.0007 15.5007C11.0382 15.5007 10.2143 15.158 9.52888 14.4726C8.84347 13.7872 8.50076 12.9632 8.50076 12.0007C8.50076 11.0382 8.84347 10.2143 9.52888 9.52888C10.2143 8.84346 11.0382 8.50076 12.0007 8.50076C12.9632 8.50076 13.7872 8.84346 14.4726 9.52888C15.158 10.2143 15.5007 11.0382 15.5007 12.0007C15.5007 12.9632 15.158 13.7872 14.4726 14.4726C13.7872 15.158 12.9632 15.5007 12.0007 15.5007Z" fill="#7B61FF"/>
</svg>

<svg width="24" height="24" fill="none" xmlns="http://www.w3.org/2000/svg"><path d="M11.25 22.2v-1.73c-2.083-.214-3.836-1.033-5.26-2.458-1.425-1.424-2.244-3.178-2.458-5.261H1.8v-1.5h1.73c.215-2.084 1.034-3.837 2.458-5.262 1.425-1.424 3.178-2.243 5.262-2.457V1.8h1.5v1.73c2.083.215 3.837 1.034 5.261 2.458 1.425 1.425 2.244 3.178 2.458 5.262h1.73v1.5h-1.73c-.214 2.083-1.033 3.837-2.458 5.261-1.424 1.425-3.178 2.244-5.261 2.458v1.73h-1.5zM12 19c1.934 0 3.584-.683 4.95-2.05C18.318 15.585 19 13.935 19 12c0-1.933-.683-3.583-2.05-4.95C15.585 5.685 13.935 5 12 5c-1.933 0-3.583.684-4.95 2.05C5.685 8.418 5 10.068 5 12c0 1.934.684 3.584 2.05 4.95C8.418 18.318 10.068 19 12 19zm0-3.5c-.962 0-1.786-.342-2.471-1.027C8.843 13.787 8.5 12.963 8.5 12c0-.963.342-1.787 1.028-2.472C10.214 8.843 11.039 8.5 12 8.5s1.786.342 2.472 1.028c.685.685 1.028 1.51 1.028 2.472s-.343 1.786-1.028 2.472c-.686.685-1.51 1.028-2.472 1.028z" fill="#7B61FF"/></svg>
